packages/ffe-icons/icons/filled/sm/stylus_laser_pointer.svg

<svg xmlns="http://www.w3.org/2000/svg" height="20" viewBox="0 -960 960 960" width="20"><path d="M360.045-115.617q-45.814 0-77.929-32.07t-32.115-77.884q0-45.814 32.07-77.929t77.884-32.115q45.814 0 77.929 32.07 32.115 32.069 32.115 77.884 0 45.814-32.07 77.929t-77.884 32.115Zm183.724-160q-11.769-41.999-40.346-73.96-28.576-31.961-67.806-47.73l91.924-90.771h-249.54q-28.154 0-47.077-19.62t-18.923-48.158q0-17.836 9.154-32.836t23.846-24.846l442.671-273.866q13.789-8.364 29.942-4.018 16.154 4.346 23.846 18.192t4.038 28.692q-3.653 14.846-17.192 23.538L365.152-589.999h307.847q30.789 0 52.894 21.421 22.106 21.42 22.106 52.578 0 15.171-5.731 28.893-5.731 13.722-16.192 24.183L543.769-275.617Z"/></svg>

<svg xmlns="http://www.w3.org/2000/svg" height="20" viewBox="0 -960 960 960" width="20"><path d="M360.05-115.62q-45.82 0-77.93-32.07Q250-179.76 250-225.57q0-45.82 32.07-77.93 32.07-32.12 77.88-32.12 45.82 0 77.93 32.07Q470-271.48 470-225.66q0 45.81-32.07 77.93-32.07 32.11-77.88 32.11Zm183.72-160q-11.77-42-40.35-73.96-28.57-31.96-67.8-47.73l91.92-90.77H278q-28.15 0-47.08-19.62Q212-527.32 212-555.86q0-17.83 9.16-32.83 9.15-15 23.84-24.85L687.67-887.4q13.79-8.37 29.94-4.02 16.16 4.34 23.85 18.19 7.69 13.85 4.04 28.69-3.66 14.85-17.19 23.54L365.15-590H673q30.79 0 52.89 21.42Q748-547.16 748-516q0 15.17-5.73 28.89t-16.19 24.19l-182.31 187.3Z"/></svg>
